lib/svgs/star-s.svg

<?xml version="1.0" encoding="UTF-8"?>
<svg width="16px" height="16px" viewBox="0 0 16 16" version="1.1" xmlns="http://www.w3.org/2000/svg" xmlns:xlink="http://www.w3.org/1999/xlink">
    <!-- Generator: sketchtool 51.3 (57544) - http://www.bohemiancoding.com/sketch -->
    <title>app/star-s</title>
    <desc>Created with sketchtool.</desc>
    <defs></defs>
    <g id="Icons" stroke="none" stroke-width="1" fill="none" fill-rule="evenodd">
        <g id="Web" transform="translate(-530.000000, -665.000000)" fill="#000000">
            <g id="app/star-s" transform="translate(530.000000, 665.000000)">
                <path d="M14.9744695,6.41293745 C14.9123438,6.22793768 14.7487169,6.09323739 14.5509645,6.06510378 L10.3491653,5.47088793 L8.47051828,1.76151465 C8.29376621,1.41282845 7.70575931,1.41282845 7.52900724,1.76151465 L5.65036022,5.47088793 L1.44943598,6.06510378 C1.25168366,6.09323739 1.08718173,6.22793768 1.02593102,6.41293745 C0.963805288,6.59793722 1.01543089,6.80169273 1.15805756,6.93724556 L4.19871821,9.82477654 L3.48033479,13.9015918 C3.4470844,14.0934118 3.52758534,14.2877894 3.68946224,14.4020289 C3.78133831,14.4668215 3.88896457,14.4992177 3.99834086,14.4992177 C4.08146683,14.4992177 4.16546782,14.4796095 4.24246872,14.4412455 L7.99976276,12.5162248 L11.7570568,14.4412455 C11.9346839,14.531614 12.1490614,14.5171209 12.3100633,14.4020289 C12.4719402,14.2877894 12.5524411,14.0934118 12.5191907,13.9015918 L11.8016823,9.82477654 L14.841468,6.93724556 C14.9849696,6.80169273 15.0357202,6.59793722 14.9744695,6.41293745 L14.9744695,6.41293745 Z" id="star-s"></path>
            </g>
        </g>
    </g>
</svg>

<svg xmlns="http://www.w3.org/2000/svg" viewBox="0 0 16 16">
    <path d="M14.974 6.413a.522.522 0 0 0-.423-.348l-4.202-.594-1.878-3.71c-.177-.348-.765-.348-.942 0L5.65 5.472l-4.2.594a.52.52 0 0 0-.424.348.502.502 0 0 0 .132.524l3.04 2.888-.718 4.077a.506.506 0 0 0 .21.5.534.534 0 0 0 .552.04L8 12.515l3.757 1.925c.178.09.392.076.553-.039a.506.506 0 0 0 .21-.5l-.718-4.077 3.04-2.888a.503.503 0 0 0 .132-.524z"/>
</svg>
